X: 1
T: Da Brig
M: 6/8
L: 1/8
R: jig
K: Dmaj
|:d3 A3|AFE D3|d3 A2F|D2g f2e|
d3 A3|AFE D3|E2F G2A|B3 ABc:|
|:d2e fed|c3 cde|d2e fff|g3 f2g|
agf gfe|fed edc|dBA FGA||B3 ABc:|
